X:88
T:Lilting Banshee
Z: id:dc-jig-71
M:6/8
L:1/8
K:A Dorian
EAA EAA|BAB G2A|Bee edB|dBA GED|!
EAA EAA|BAB G2A|Bee edB|dBA A3:|!
eaa age|dBA G2A|Bee edB|def gfg|!
eaa age|dBA G2A|Bee edB|dBA A3:|!

